source/svgs/bowtie/uE957-environment.svg

<svg xmlns="http://www.w3.org/2000/svg" viewBox="0 0 448 448" enable-background="new 0 0 448 448"><path d="M396.5 288h-44.5v-256.953c0-17.125-13.937-31.047-31.062-31.047h-193.891c-17.125 0-31.047 13.922-31.047 31.047v256.953h-44.5l-40 160h425l-40-160zm-76.5-256.953v320.953h-192.047l-.906-320 192.953-.953zm-267.5 384.953l24-96h19.5v64h256v-64h19.5l24 96h-343zm235.5-320h-128v-32h128v32zm0 160h-128v-32h128v32zm0 64h-128v-32h128v32z"/></svg>

<svg xmlns="http://www.w3.org/2000/svg" viewBox="0 0 448 448"><path d="M396.5 288H352V31.047C352 13.922 338.063 0 320.938 0H127.047C109.922 0 96 13.922 96 31.047V288H51.5l-40 160h425l-40-160zM320 31.047V352H127.953l-.906-320L320 31.047zM52.5 416l24-96H96v64h256v-64h19.5l24 96h-343zM288 96H160V64h128v32zm0 160H160v-32h128v32zm0 64H160v-32h128v32z"/></svg>
